X: 28087
T: Mr. And Mrs. Accordionator
R: jig
M: 6/8
K: Gmajor
|:G3AGE|GED DEF|G2D ADD|BGd cBA|
G3AGE|GED DBc|dDB AGF|1 GFE DEF:|2 GFE DGF||
|:~E3c2A|BcB AGF|~E3c2d|BAG AGF|
~E3c2A|BcB ABc|dDB AGF|1 GFE DGF:|2 GFE DEF||

